X:1
T:We Three Kings of Orient Are
T:We Three Kings of Orient Are
T:John Henry Hopkins
C:John Henry Hopkins
%%score [ 1 2 3 4 ]
L:1/8
Q:1/4=60
M:3/8
K:G
V:1 treble nm="Soprano"
V:2 treble nm="Alto"
V:3 treble-8 nm="Tenor"
V:4 bass nm="Bass"
V:1
"^Slowly" B2 A | G2 E | F G F | E3 | B2 A | G2 E | F G F | E3 | G2 G | A2 A | B2 B | dc B | A B A | %13
w: 1.We three|kings of|O- ri- ent|are;|Bear- ing|gifts we|trav- erse a-|far.|Field and|foun- tain,|moor and|moun- * tain,|Fol- low- ing|
 G2 F | E3 ||"^REFRAIN." (F2 !fermata!A) | G2 G | G2 D | G2 E | G2 z | G2 G | G2 D | G2 E | G3 | %24
w: yon- der|star.|O _|star of|won- der,|star of|night,|Star with|roy- al|beau- ty|bright,|
 G2 G | A2 B | c2 B | A2 B | G2 G | G2 D | G2 E | G3 |] %32
w: West- ward|lead- ing,|still pro-|ceed- ing,|Guide us|to Thy|per- fect|light.|
V:2
 G2 F | E2 E | ^D D D | E3 | G2 F | E2 E | ^D D D | E3 | E2 E | F2 F | G2 G | GF G | E E E | %13
w: 1.We three|kings of|O- ri- ent|are;|Bear- ing|gifts we|trav- erse a-|far.|Field and|foun- tain,|moor and|moun- * tain,|Fol- low- ing|
 E2 ^D | E3 || !fermata!D3 | D2 D | D2 B, | E2 C | D2 z | D2 D | D2 B, | E2 C | D3 | E2 E | F2 G | %26
w: yon- der|star.|O|star of|won- der,|star of|night,|Star with|roy- al|beau- ty|bright,|West- ward|lead- ing,|
 G2 G | F2 G | D2 D | D2 B, | E2 C | D3 |] %32
w: still pro-|ceed- ing,|Guide us|to Thy|per- fect|light.|
V:3
 B2 B | B2 G | A B A | G3 | B2 B | B2 G | A B A | G3 | B2 B | d2 d | d2 d | Bc d | c c c | B2 A | %14
w: 1.We three|kings of|O- ri- ent|are;|Bear- ing|gifts we|trav- erse a-|far.|Field and|foun- tain,|moor and|moun- * tain,|Fol- low- ing|yon- der|
 G3 || (A2 !fermata!c) | B2 B | B2 G | G2 G | B2 z | B2 B | B2 G | G2 G | B3 | B2 B | d2 d | e2 d | %27
w: star.|O _|star of|won- der,|star of|night,|Star with|roy- al|beau- ty|bright,|West- ward|lead- ing,|still pro-|
 d2 d | B2 B | B2 G | G2 G | B3 |] %32
w: ceed- ing,|Guide us|to Thy|per- fect|light.|
V:4
 E,2 E, | E,2 E, | B,, B,, B,, | E,3 | E,2 E, | E,2 E, | B,, B,, B,, | E,3 | E,2 E, | D,2 D, | %10
w: 1.We three|kings of|O- ri- ent|are;|Bear- ing|gifts we|trav- erse a-|far.|Field and|foun- tain,|
 G,2 G, | B,A, G, | A, A, A, | B,2 B,, | E,3 || !fermata!D,3 | G,2 G, | G,2 G, | C,2 C, | %19
w: moor and|moun- * tain,|Fol- low- ing|yon- der|star.|O|star of|won- der,|star of|
 [G,,G,]2 z | G,2 G, | G,2 G, | C,2 C, | [G,,G,]3 | E,2 E, | D,2 G, | C,2 G, | D,2 G, | G,2 G, | %29
w: night,|Star with|roy- al|beau- ty|bright,|West- ward|lead- ing,|still pro-|ceed- ing,|Guide us|
 G,2 G, | C,2 C, | [G,,G,]3 |] %32
w: to Thy|per- fect|light.|

